public/avatar/body/222.svg

<svg xmlns:xlink="http://www.w3.org/1999/xlink" height="82" width="84.85" xmlns="http://www.w3.org/2000/svg"><g transform="translate(37.4 42.25)"><use height="38" transform="translate(-11.95 -17.45)" width="32.05" xlink:href="#a"/><use height="38.95" transform="translate(-12.45 -17.95)" width="33.05" xlink:href="#b"/><use height="23.85" transform="translate(-14.65 .5)" width="37.7" xlink:href="#c"/></g><defs><path d="M27.35 7.4q2.15 4.15 3.55 8.75 1.45 4.7 1.15 9.5-.35 4.95-4.2 8.1-3.8 3.2-8.75 4.05l-2.6.2q-3.6 0-7.05-1.15-4.65-1.6-7.1-5.5Q-.2 27.4.05 23q.2-4.4 2-9.3Q3.85 8.75 7 5.05 10.1 1.3 14.7.1l1.8-.1q1.9.05 3.7.8 4.75 2.05 7.15 6.6" fill="#c84d4d" fill-rule="evenodd" transform="translate(-.05)" id="d"/><path d="M27.35 7.4Q24.95 2.85 20.2.8 17.55-.3 14.7.1 10.1 1.3 7 5.05q-3.15 3.7-4.95 8.65-1.8 4.9-2 9.3-.25 4.4 2.3 8.35 2.45 3.9 7.1 5.5 4.65 1.55 9.65.95 4.95-.85 8.75-4.05 3.85-3.15 4.2-8.1.3-4.8-1.15-9.5-1.4-4.6-3.55-8.75Z" fill="none" stroke="#000" stroke-linecap="round" stroke-linejoin="round" transform="translate(.45 .5)" id="e"/><use height="38" width="32.05" xlink:href="#d" id="a"/><use height="38.95" width="33.05" xlink:href="#e" id="b"/><g id="c" fill-rule="evenodd"><path d="M-11.85 1.15q5.8 1.05 10 4.15.6 1 1 2.35.55 1.8.55 3.65-4.4-5.75-11.85-7.7l-.35-1.75.15-.55.5-.15" fill="#153060" transform="translate(14.65 -.5)"/><path d="M2.7 11.3q-.8-.4-1.75-1.85-1-1.4-1.8-1.8-.4-1.35-1-2.35Q.75 7.25 2.7 10v1.3" fill="#153060" transform="translate(14.65 -.5)"/><path d="M.95 9.45Q1.9 10.9 2.7 11.3V10q3.5 5.05 4.55 12.55.1.5-.4.6l-7.8.3q-5.85-.3-6.6-1.4l-1.1-2.9q-.65 1.6-1.15 1.6-4.25-.1-4.85-3.3l.15-.5q3.85-3.85 2.35-13.35Q-4.7 5.55-.3 11.3q0-1.85-.55-3.65.8.4 1.8 1.8" fill="#153060" transform="translate(14.65 -.5)"/><path d="m-10.95 3.95-.3-1.5q6.2 1.4 10.3 5.15l.1.1q.55 1.8.55 3.6-3.95-5.2-10.65-7.35" fill="#67c6dd" transform="translate(14.65 -.5)"/><path d="M-10.1 19.6q-2.7.05-3.35-2.2 4-4.55 2.5-13.45Q-4.25 6.1-.3 11.3q0-1.8-.55-3.6 5.6 5.25 6.9 14.45l-7 .25q-4.6-.3-5.65-.95l-2.05-3.85-1.45 2" fill="#67c6dd" transform="translate(14.65 -.5)"/><path d="m-4.75 7.05-2.2-3.25Q-3.55 5.2-1 7.6l.2.1q.5 2 .5 3.6-1.65-2.2-4.45-4.25" fill="#1f7da6" transform="translate(14.65 -.5)"/><path d="M-4.75 7.05Q-1.95 9.1-.3 11.3q0-1.6-.5-3.6Q4.75 13 6.05 22.15l-7.15.2q-.95-2.5-3.2-4.05v3q-1.6-3.05-3.9-4.35l-.45.65-1.45 2-1.3-.2q3.3-2.75 4.1-7.1l2.05 1.45q2 1 3.4 1.1 1.3-1-2.9-7.8" fill="#1f7da6" transform="translate(14.65 -.5)"/><path d="M22.85 17.5q.25.15.15.5-.6 3.25-4.85 3.3-.5 0-1.1-1.6L16 22.5l-.1.1q-.75 1.1-6.55 1.4l-7.8-.3q-.5-.1-.4-.6Q3.7 4.7 20.25 1.7l.5.15.1.55-.7 5.9q-.15 6.35 2.7 9.2" fill="#153060" transform="translate(14.65 -.5)"/><path d="m19.6 3-.65 5.55q-.05 6.15 2.9 9.4-.7 2.25-3.4 2.25l-1.4-2.05L15 22q-1.05.65-5.7.95l-6.95-.25Q4.55 6.35 19.6 3" fill="#67c6dd" transform="translate(14.65 -.5)"/><path d="m19.6 3-.65 5.55q-.05 6.15 2.9 9.4-.55 1.65-2.4 2.1-.95-1.5-2.4-2.85v1L15 22q-.85.45-4.25.8l-.2-3.75L7.7 22.3v-3l-3.1 3.65q.35-3.6 3.4-6.9 1.55-1.65 5.7-4.75-.65 1.45-.95 3.3 2.2-1.5 2.75-5.35.6-4.1 2.8-5.9L19.6 3" fill="#1f7da6" transform="translate(14.65 -.5)"/><path d="m4.6 24-.8.1L5.55 22l-.3 1.35-.65.65" fill="#4d63ab" transform="translate(14.65 -.5)"/><path d="M2.9 9.6q2.9 4.15 2.9 9.2L5.55 22 3.8 24.1l-.85-.25-.2-.35q-1.4-10.2-8.5-15.45-2.2-1.65-4.75-2.6l-2.15-.65-.35-.15q-.7-.9.5-3.8.1-.45.5-.35Q-8.7.85-4.75 3 .1 5.6 2.9 9.6" fill="#4d63ab" transform="translate(14.65 -.5)"/><path d="M4 23.65q-.1.3-.75-.2Q2.8 14.1-4 8.3q-4.4-3.8-8.1-4.4-.3-.35.05-1.35l.4-.95Q-5.3 2.25-.1 7.5 6.5 14.15 4 23.65" fill="#fff" transform="translate(14.65 -.5)"/><path d="M2.7 11.3v-.15q3.1 5.5 1.3 12.5-.1.3-.75-.2Q2.8 14.1-4 8.3q-4.4-3.8-8.1-4.4l-.1-.3q7.55 2 11.9 7.7l-1.25-3.05Q0 8.7 2.7 11.3" fill="#ccecf4" transform="translate(14.65 -.5)"/><path d="M20.8 1.15q1.2 2.9.5 3.8l-.3.2Q17.95 5.7 14.6 8q-6.7 4.6-8.65 13.55l-.4 2.3-.2.35-2 .15-2.05-.4q-.5-.15-.55-.55v-.15q.75-10.3 8-16.75Q14.3 1.45 20.3.8q.45 0 .5.35" fill="#4d63ab" transform="translate(14.65 -.5)"/><path d="m4.65 23.35-.4.1.45-.6-.05.5" fill="#fff" transform="translate(14.65 -.5)"/><path d="M20.5 4.15Q6.9 8.55 4.7 22.85l-.45.6q-2.25.15-2.45-.5.6-9.3 7.5-15.55Q14.6 2.6 20 1.85l.5 2.3" fill="#fff" transform="translate(14.65 -.5)"/><path d="m4.65 23.35-.4.1.45-.6-.05.5" fill="#ccecf4" transform="translate(14.65 -.5)"/><path d="M10.6 8.4q-1.45 1.4-2.9 1.9 4.2-5.05 7-6l-1.55.25Q16.8 2.3 20 1.85l.5 2.3Q6.9 8.55 4.7 22.85l-.45.6-1.6-.15q1.7-6.15 3.65-9.5 1.3-2.25 4.3-5.4" fill="#ccecf4" transform="translate(14.65 -.5)"/><path d="m-8.55 3.9.9 1.4q1.4 3.1-1.1 6.85-.2.3-.55.2l-.35-.5q.1-3.9-1.65-5.2-.8-.55-1.8-.25l-.4-.05-.25-.3q-.7-2.5.85-3.35 2.05-1.2 4.35 1.2" fill="#153060" transform="translate(14.65 -.5)"/><path d="M-12.8 6.1q-.6-1.9.45-2.55l3 1q2.75 2.95-.6 7.35.1-6.8-2.85-5.8m.45-2.55q1.4-.75 3 1l-3-1" fill="#67c6dd" transform="translate(14.65 -.5)"/><path d="M-11 6.3q1-.5 2-1.35 2.05 2.95-.95 6.95.1-4.55-1.05-5.6" fill="#1f7da6" transform="translate(14.65 -.5)"/><path d="m22.6 6.65-.4.05q-.95-.35-1.8.25-1.75 1.3-1.65 5.15l-.35.5q-.4.1-.6-.2-3.25-4.9-.15-8.2Q19.9 1.8 22 2.95q1.55 1.05.85 3.4l-.25.3" fill="#153060" transform="translate(14.65 -.5)"/><path d="M19.05 12.2q-3.8-5.05-.05-7.9 1.4-1 2.4-.5 1.15.55.5 2.55-3-1.05-2.85 5.85" fill="#67c6dd" transform="translate(14.65 -.5)"/><path d="M18.75 4.5q1.35-1.2 2.55-.75 1.25.5.6 2.6l-1.7.15q-.45-1.15-1.45-2" fill="#1f7da6" transform="translate(14.65 -.5)"/><path d="M6.5 15.2q13.25-.35 13.9-2.05l.65 1.25.35 1.1q-1.75 2.1-14.05 2.65-13.7.65-20.6-3.3l.05-2.75q5.5 3.45 19.7 3.1" fill="#020202" transform="translate(14.65 -.5)"/><path d="m1.95 16.25 1.55.5L2.95 21Q-.5 20.55-.5 20l2.45-3.75m3.35 0 2.3 3.25-.7 1-2.6.5q-.2-.05-.55-4.3l1.55-.45" fill="#020202" transform="translate(14.65 -.5)"/><path d="m7.6 19.5.1.2v.4l-.8.4.7-1" fill="#020202" transform="translate(14.65 -.5)"/></g></defs></svg>

<?xml version="1.0" encoding="UTF-8" standalone="no"?>
<svg xmlns:xlink="http://www.w3.org/1999/xlink" height="82.0px" width="84.85px" xmlns="http://www.w3.org/2000/svg">
  <g transform="matrix(1.0, 0.0, 0.0, 1.0, 37.4, 42.25)">
    <use height="38.0" transform="matrix(1.0, 0.0, 0.0, 1.0, -11.95, -17.45)" width="32.05" xlink:href="#sprite0"/>
    <use height="38.95" transform="matrix(1.0, 0.0, 0.0, 1.0, -12.45, -17.95)" width="33.05" xlink:href="#sprite1"/>
    <use height="23.85" transform="matrix(1.0, 0.0, 0.0, 1.0, -14.65, 0.5)" width="37.7" xlink:href="#shape2"/>
  </g>
  <defs>
    <g id="sprite0" transform="matrix(1.0, 0.0, 0.0, 1.0, -0.05, 0.0)">
      <use height="38.0" transform="matrix(1.0, 0.0, 0.0, 1.0, 0.05, 0.0)" width="32.05" xlink:href="#shape0"/>
    </g>
    <g id="shape0" transform="matrix(1.0, 0.0, 0.0, 1.0, -0.05, 0.0)">
      <path d="M27.35 7.4 Q29.5 11.55 30.9 16.15 32.35 20.85 32.05 25.65 31.7 30.6 27.85 33.75 24.05 36.95 19.1 37.8 L16.5 38.0 Q12.9 38.0 9.45 36.85 4.8 35.25 2.35 31.35 -0.2 27.4 0.05 23.0 0.25 18.6 2.05 13.7 3.85 8.75 7.0 5.05 10.1 1.3 14.7 0.1 L16.5 0.0 Q18.4 0.05 20.2 0.8 24.95 2.85 27.35 7.4" fill="#c84d4d" fill-rule="evenodd" stroke="none"/>
    </g>
    <g id="sprite1" transform="matrix(1.0, 0.0, 0.0, 1.0, 0.45, 0.5)">
      <use height="38.95" transform="matrix(1.0, 0.0, 0.0, 1.0, -0.45, -0.5)" width="33.05" xlink:href="#shape1"/>
    </g>
    <g id="shape1" transform="matrix(1.0, 0.0, 0.0, 1.0, 0.45, 0.5)">
      <path d="M27.35 7.4 Q24.95 2.85 20.2 0.8 17.55 -0.3 14.7 0.1 10.1 1.3 7.0 5.05 3.85 8.75 2.05 13.7 0.25 18.6 0.05 23.0 -0.2 27.4 2.35 31.35 4.8 35.25 9.45 36.85 14.1 38.4 19.1 37.8 24.05 36.95 27.85 33.75 31.7 30.6 32.05 25.65 32.35 20.85 30.9 16.15 29.5 11.55 27.35 7.4 Z" fill="none" stroke="#000000" stroke-linecap="round" stroke-linejoin="round" stroke-width="1.0"/>
    </g>
    <g id="shape2" transform="matrix(1.0, 0.0, 0.0, 1.0, 14.65, -0.5)">
      <path d="M-11.85 1.15 Q-6.05 2.2 -1.85 5.3 -1.25 6.3 -0.85 7.65 -0.3 9.45 -0.3 11.3 -4.7 5.55 -12.15 3.6 L-12.5 1.85 -12.35 1.3 -11.85 1.15" fill="#153060" fill-rule="evenodd" stroke="none"/>
      <path d="M2.7 11.3 Q1.9 10.9 0.95 9.45 -0.05 8.05 -0.85 7.65 -1.25 6.3 -1.85 5.3 0.75 7.25 2.7 10.0 L2.7 11.3" fill="#153060" fill-rule="evenodd" stroke="none"/>
      <path d="M0.95 9.45 Q1.9 10.9 2.7 11.3 L2.7 10.0 Q6.2 15.05 7.25 22.55 7.35 23.05 6.85 23.15 L-0.95 23.45 Q-6.8 23.15 -7.55 22.05 L-8.65 19.15 Q-9.3 20.75 -9.8 20.75 -14.05 20.65 -14.65 17.45 L-14.5 16.95 Q-10.65 13.1 -12.15 3.6 -4.7 5.55 -0.3 11.3 -0.3 9.45 -0.85 7.65 -0.05 8.05 0.95 9.45" fill="#153060" fill-rule="evenodd" stroke="none"/>
      <path d="M-10.95 3.95 L-11.25 2.45 Q-5.05 3.85 -0.95 7.6 L-0.85 7.7 Q-0.3 9.5 -0.3 11.3 -4.25 6.1 -10.95 3.95" fill="#67c6dd" fill-rule="evenodd" stroke="none"/>
      <path d="M-10.1 19.6 Q-12.8 19.65 -13.45 17.4 -9.45 12.85 -10.95 3.95 -4.25 6.1 -0.3 11.3 -0.3 9.5 -0.85 7.7 4.75 12.95 6.05 22.15 L-0.95 22.4 Q-5.55 22.1 -6.6 21.45 L-8.65 17.6 -10.1 19.6" fill="#67c6dd" fill-rule="evenodd" stroke="none"/>
      <path d="M-4.75 7.05 L-6.95 3.8 Q-3.55 5.2 -1.0 7.6 L-0.8 7.7 Q-0.3 9.7 -0.3 11.3 -1.95 9.1 -4.75 7.05" fill="#1f7da6" fill-rule="evenodd" stroke="none"/>
      <path d="M-4.75 7.05 Q-1.95 9.1 -0.3 11.3 -0.3 9.7 -0.8 7.7 4.75 13.0 6.05 22.15 L-1.1 22.35 Q-2.05 19.85 -4.3 18.3 L-4.3 21.3 Q-5.9 18.25 -8.2 16.95 L-8.65 17.6 -10.1 19.6 -11.4 19.4 Q-8.1 16.65 -7.3 12.3 L-5.25 13.75 Q-3.25 14.75 -1.85 14.85 -0.55 13.85 -4.75 7.05" fill="#1f7da6" fill-rule="evenodd" stroke="none"/>
      <path d="M22.85 17.5 Q23.1 17.65 23.0 18.0 22.4 21.25 18.15 21.3 17.65 21.3 17.05 19.7 L16.0 22.5 15.9 22.6 Q15.15 23.7 9.35 24.0 L1.55 23.7 Q1.05 23.6 1.15 23.1 3.7 4.7 20.25 1.7 L20.75 1.85 20.85 2.4 20.15 8.3 Q20.0 14.65 22.85 17.5" fill="#153060" fill-rule="evenodd" stroke="none"/>
      <path d="M19.6 3.0 L18.95 8.55 Q18.9 14.7 21.85 17.95 21.15 20.2 18.45 20.2 L17.05 18.15 15.0 22.0 Q13.95 22.65 9.3 22.95 L2.35 22.7 Q4.55 6.35 19.6 3.0" fill="#67c6dd" fill-rule="evenodd" stroke="none"/>
      <path d="M19.6 3.0 L18.95 8.55 Q18.9 14.7 21.85 17.95 21.3 19.6 19.45 20.05 18.5 18.55 17.05 17.2 L17.05 18.2 15.0 22.0 Q14.15 22.45 10.75 22.8 L10.55 19.05 7.7 22.3 7.7 19.3 4.6 22.95 Q4.95 19.35 8.0 16.05 9.55 14.4 13.7 11.3 13.05 12.75 12.75 14.6 14.95 13.1 15.5 9.25 16.1 5.15 18.3 3.35 L19.6 3.0" fill="#1f7da6" fill-rule="evenodd" stroke="none"/>
      <path d="M4.6 24.0 L3.8 24.1 5.55 22.0 5.25 23.35 4.6 24.0" fill="#4d63ab" fill-rule="evenodd" stroke="none"/>
      <path d="M2.9 9.6 Q5.8 13.75 5.8 18.8 L5.55 22.0 3.8 24.1 2.95 23.85 2.75 23.5 Q1.35 13.3 -5.75 8.05 -7.95 6.4 -10.5 5.45 L-12.65 4.8 -13.0 4.65 Q-13.7 3.75 -12.5 0.85 -12.4 0.4 -12.0 0.5 -8.7 0.85 -4.75 3.0 0.1 5.6 2.9 9.6" fill="#4d63ab" fill-rule="evenodd" stroke="none"/>
      <path d="M4.0 23.65 Q3.9 23.95 3.25 23.45 2.8 14.1 -4.0 8.3 -8.4 4.5 -12.1 3.9 -12.4 3.55 -12.05 2.55 L-11.65 1.6 Q-5.3 2.25 -0.1 7.5 6.5 14.15 4.0 23.65" fill="#ffffff" fill-rule="evenodd" stroke="none"/>
      <path d="M2.7 11.3 L2.7 11.15 Q5.8 16.65 4.0 23.65 3.9 23.95 3.25 23.45 2.8 14.1 -4.0 8.3 -8.4 4.5 -12.1 3.9 L-12.2 3.6 Q-4.65 5.6 -0.3 11.3 L-1.55 8.25 Q0.0 8.7 2.7 11.3" fill="#ccecf4" fill-rule="evenodd" stroke="none"/>
      <path d="M20.8 1.15 Q22.0 4.05 21.3 4.95 L21.0 5.15 Q17.95 5.7 14.6 8.0 7.9 12.6 5.95 21.55 L5.55 23.85 5.35 24.2 3.35 24.35 1.3 23.95 Q0.8 23.8 0.75 23.4 L0.75 23.25 Q1.5 12.95 8.75 6.5 14.3 1.45 20.3 0.8 20.75 0.8 20.8 1.15" fill="#4d63ab" fill-rule="evenodd" stroke="none"/>
      <path d="M4.65 23.35 L4.25 23.45 4.7 22.85 4.65 23.35" fill="#ffffff" fill-rule="evenodd" stroke="none"/>
      <path d="M20.5 4.15 Q6.9 8.55 4.7 22.85 L4.25 23.45 Q2.0 23.6 1.8 22.95 2.4 13.65 9.3 7.4 14.6 2.6 20.0 1.85 L20.5 4.15" fill="#ffffff" fill-rule="evenodd" stroke="none"/>
      <path d="M4.65 23.35 L4.25 23.45 4.7 22.85 4.65 23.35" fill="#ccecf4" fill-rule="evenodd" stroke="none"/>
      <path d="M10.6 8.4 Q9.15 9.8 7.7 10.3 11.9 5.25 14.7 4.3 L13.15 4.55 Q16.8 2.3 20.0 1.85 L20.5 4.15 Q6.9 8.55 4.7 22.85 L4.25 23.45 2.65 23.3 Q4.35 17.15 6.3 13.8 7.6 11.55 10.6 8.4" fill="#ccecf4" fill-rule="evenodd" stroke="none"/>
      <path d="M-8.55 3.9 L-7.65 5.3 Q-6.25 8.4 -8.75 12.15 -8.95 12.45 -9.3 12.35 L-9.65 11.85 Q-9.55 7.95 -11.3 6.65 -12.1 6.1 -13.1 6.4 L-13.5 6.35 -13.75 6.05 Q-14.45 3.55 -12.9 2.7 -10.85 1.5 -8.55 3.9" fill="#153060" fill-rule="evenodd" stroke="none"/>
      <path d="M-12.8 6.1 Q-13.4 4.2 -12.35 3.55 L-9.35 4.55 Q-6.6 7.5 -9.95 11.9 -9.85 5.1 -12.8 6.1" fill="#67c6dd" fill-rule="evenodd" stroke="none"/>
      <path d="M-12.35 3.55 Q-10.95 2.8 -9.35 4.55 L-12.35 3.55" fill="#67c6dd" fill-rule="evenodd" stroke="none"/>
      <path d="M-11.0 6.3 Q-10.0 5.8 -9.0 4.95 -6.95 7.9 -9.95 11.9 -9.85 7.35 -11.0 6.3" fill="#1f7da6" fill-rule="evenodd" stroke="none"/>
      <path d="M22.6 6.65 L22.2 6.7 Q21.25 6.35 20.4 6.95 18.65 8.25 18.75 12.1 L18.4 12.6 Q18.0 12.7 17.8 12.4 14.55 7.5 17.65 4.2 19.9 1.8 22.0 2.95 23.55 4.0 22.85 6.35 L22.6 6.65" fill="#153060" fill-rule="evenodd" stroke="none"/>
      <path d="M19.05 12.2 Q15.25 7.15 19.0 4.3 20.4 3.3 21.4 3.8 22.55 4.35 21.9 6.35 18.9 5.3 19.05 12.2" fill="#67c6dd" fill-rule="evenodd" stroke="none"/>
      <path d="M18.75 4.5 Q20.1 3.3 21.3 3.75 22.55 4.25 21.9 6.35 L20.2 6.5 Q19.75 5.35 18.75 4.5" fill="#1f7da6" fill-rule="evenodd" stroke="none"/>
      <path d="M6.5 15.2 Q19.75 14.85 20.4 13.15 L21.05 14.4 21.4 15.5 Q19.65 17.6 7.35 18.15 -6.35 18.8 -13.25 14.85 L-13.2 12.1 Q-7.7 15.55 6.5 15.2" fill="#020202" fill-rule="evenodd" stroke="none"/>
      <path d="M1.95 16.25 L3.5 16.75 2.95 21.0 Q-0.5 20.55 -0.5 20.0 L1.95 16.25" fill="#020202" fill-rule="evenodd" stroke="none"/>
      <path d="M5.3 16.25 L7.6 19.5 6.9 20.5 4.3 21.0 Q4.1 20.95 3.75 16.7 L5.3 16.25" fill="#020202" fill-rule="evenodd" stroke="none"/>
      <path d="M7.6 19.5 L7.7 19.7 7.7 20.1 6.9 20.5 7.6 19.5" fill="#020202" fill-rule="evenodd" stroke="none"/>
    </g>
  </defs>
</svg>
